svg/Pictogram/pictograms-aem-0078-machine_rollover-with_rops.svg

<?xml version="1.0" encoding="ISO-8859-1" standalone="yes"?>
<svg height="304.014" width="304.015">
  <metadata>
    <rdf:RDF xmlns:cc="http://web.resource.org/cc/" xmlns:dc="http://purl.org/dc/elements/1.1/" xmlns:rdf="http://www.w3.org/1999/02/22-rdf-syntax-ns#">
      <cc:Work rdf:about="">
        <dc:title></dc:title>
        <dc:description></dc:description>
        <dc:subject>
          <rdf:Bag>
            <rdf:li></rdf:li>
          </rdf:Bag>
        </dc:subject>
        <dc:publisher>
          <cc:Agent rdf:about="http://www.unece.org/trans/danger/publi/ghs/pictograms.html">
            <dc:title>Source: UNECE GHS of Classification and Labeling of Chemicals, Source: AEM Pictorial Database, Source: AEM Pictorial Database, Source: AEM Pictorial Database, Source: AEM Pictorial Database</dc:title>
          </cc:Agent>
        </dc:publisher>
        <dc:creator>
          <cc:Agent>
            <dc:title></dc:title>
          </cc:Agent>
        </dc:creator>
        <dc:rights>
          <cc:Agent>
            <dc:title></dc:title>
          </cc:Agent>
        </dc:rights>
        <dc:date></dc:date>
        <dc:format>image/svg+xml</dc:format>
        <dc:type rdf:resource="http://purl.org/dc/dcmitype/StillImage"/>
        <cc:license rdf:resource="http://en.wikipedia.org/wiki/Public_domain"/>
        <dc:language>en</dc:language>
      </cc:Work>
    </rdf:RDF>
  </metadata>
  <defs><marker id="ArrowEnd" markerHeight="3" markerUnits="strokeWidth" markerWidth="4" orient="auto" refX="0" refY="5" viewBox="0 0 10 10"><path d="M 0 0 L 10 5 L 0 10 z"/></marker><marker id="ArrowStart" markerHeight="3" markerUnits="strokeWidth" markerWidth="4" orient="auto" refX="10" refY="5" viewBox="0 0 10 10"><path d="M 10 0 L 0 5 L 10 10 z"/></marker> </defs>
  <g id="g2958" transform="matrix(1.3532768,0,0,1.3532781,-53.207834,-52.192858)">
    <path d="M 249.382 176.049L 248.522 173.495L 54.6324 250.94L 55.4874 253.495L 249.382 176.049" style="stroke:none; fill-rule:evenodd; fill:#000000"/>
    <path d="M 99.3354 212.006C 99.5264 208.174 96.5774 204.913 92.7454 204.717C 88.9174 204.526 85.6514 207.471 85.4604 211.303C 85.2694 215.135 88.2184 218.401 92.0504 218.592C 95.8784 218.788 99.1444 215.834 99.3354 212.002" style="stroke:none; fill-rule:evenodd; fill:#000000"/>
    <path d="M 164.065 155.471L 160.183 171.604L 174.331 187.483L 179.772 188.725L 182.976 192.256L 173.003 189.983L 157.222 172.35L 159.589 162.534L 152.23 174.135L 146.878 177.28L 142.038 192.545L 134.905 215.053C 134.819 215.381 134.69 215.686 134.53 215.979C 134.522 215.991 134.511 216.002 134.503 216.018C 134.386 216.229 134.249 216.424 134.093 216.612C 134.073 216.631 134.054 216.651 134.038 216.67C 133.886 216.842 133.722 217.002 133.542 217.147C 133.522 217.163 133.503 217.174 133.483 217.19C 133.304 217.331 133.108 217.456 132.905 217.565C 132.882 217.577 132.854 217.584 132.831 217.596C 132.632 217.698 132.425 217.784 132.206 217.85C 132.163 217.862 132.116 217.87 132.069 217.881C 131.905 217.924 131.745 217.975 131.573 217.995L 108.847 220.897L 97.9214 228.143C 97.8084 228.221 97.6834 228.268 97.5624 228.331L 80.8474 238.01C 78.9524 239.108 76.5224 238.459 75.4254 236.565C 74.3234 234.666 74.9724 232.237 76.8704 231.139L 93.6284 221.436C 93.6284 221.432 93.6324 221.432 93.6324 221.432L 98.9764 217.897C 100.589 216.409 101.604 214.284 101.604 211.916C 101.604 210.166 101.054 208.545 100.112 207.217L 100.128 207.221L 95.5424 200.67C 95.5224 200.643 95.5034 200.627 95.4834 200.6L 95.4834 200.6L 95.4834 200.6L 84.1044 184.342C 82.8474 182.545 83.2844 180.073 85.0814 178.815C 86.8784 177.557 89.3514 177.995 90.6084 179.791L 100.464 193.874C 100.48 193.897 100.503 193.916 100.519 193.94C 100.522 193.94 100.522 193.944 100.522 193.944C 100.522 193.948 100.522 193.948 100.522 193.948L 108.237 204.967L 123.175 203.061L 117.452 194.565L 115.03 195.987L 116.495 197.6L 112.437 201.225L 72.2694 156.237L 76.3274 152.612L 77.8314 154.229L 103.808 119.819L 116.347 113.776L 106.062 115.053L 90.3194 97.3814L 89.1874 87.2134L 92.3354 90.7954L 92.9564 96.3424L 107.14 112.194L 123.944 110.116L 133.944 105.295L 137.499 102.151L 129.589 93.2564L 112.812 108.202C 111.476 109.389 109.433 109.272 108.241 107.936L 96.2024 94.4204C 95.0154 93.0844 95.1324 91.0414 96.4684 89.8504L 139.706 51.3314C 141.042 50.1434 143.089 50.2604 144.276 51.5964L 156.315 65.1124C 157.507 66.4484 157.39 68.4914 156.054 69.6824L 137.874 85.8774L 189.929 144.143L 208.101 127.956C 209.433 126.768 211.48 126.885 212.671 128.221L 224.706 141.737C 225.897 143.073 225.78 145.116 224.444 146.307L 181.202 184.823C 179.87 186.01 177.823 185.893 176.636 184.561L 164.597 171.045C 163.405 169.709 163.522 167.663 164.858 166.475L 181.636 151.53L 173.683 142.643L 170.19 145.76L 164.069 155.471L 164.065 155.471zM 124.308 190.534L 131.136 200.67L 134.472 190.147L 136.644 183.288L 124.308 190.534zM 149.386 168.745L 163.124 147.268L 162.714 146.811L 146.909 160.975L 140.714 154.002L 130.194 163.377C 128.417 164.963 125.69 164.811 124.101 163.034L 111.624 149.053C 110.155 147.413 110.198 144.541 111.968 142.959L 122.464 133.612L 116.198 126.577L 132.062 112.432L 131.757 112.092L 107.151 124.045L 80.5894 157.62L 111.272 192.194L 114.515 190.225L 113.573 188.803C 113.562 188.788 113.55 188.768 113.534 188.748L 113.468 188.647C 113.437 188.6 113.421 188.553 113.394 188.506C 113.288 188.338 113.194 188.174 113.116 187.995C 113.081 187.913 113.058 187.823 113.026 187.737C 112.972 187.584 112.921 187.432 112.89 187.276C 112.862 187.166 112.854 187.053 112.839 186.94C 112.819 186.803 112.804 186.666 112.8 186.53C 112.796 186.405 112.808 186.28 112.815 186.155C 112.823 186.03 112.831 185.905 112.851 185.78C 112.874 185.643 112.909 185.514 112.948 185.381C 112.98 185.268 113.003 185.159 113.046 185.053C 113.101 184.905 113.171 184.76 113.245 184.62C 113.288 184.538 113.323 184.452 113.374 184.374C 113.472 184.209 113.593 184.057 113.718 183.905C 113.749 183.866 113.772 183.819 113.808 183.78L 113.89 183.69C 113.905 183.67 113.921 183.655 113.937 183.635L 129.757 166.092C 131.226 164.463 133.733 164.334 135.362 165.803C 136.991 167.268 137.12 169.78 135.655 171.409L 123.308 185.096L 138.991 175.885L 141.659 167.456C 142.323 165.366 144.554 164.209 146.644 164.87C 148.362 165.416 149.448 167.018 149.413 168.737M 119.991 126.784L 126.233 133.803L 113.534 145.135C 112.987 145.838 113.101 146.87 113.808 147.416L 126.183 161.303C 126.796 161.952 127.827 162.006 128.476 161.389L 140.933 150.264L 147.116 157.178L 160.956 144.838L 133.847 114.432L 119.991 126.784zM 168.39 143.748L 173.862 138.842L 183.64 149.741L 187.917 145.928L 135.854 87.6704L 131.593 91.4674L 141.284 102.338L 135.772 107.248L 168.39 143.748zM 108.94 104.666C 110.249 106.131 111.093 106.139 112.515 104.87L 152.788 69.0264C 154.257 67.7174 154.261 66.8744 152.995 65.4524L 143.581 54.8814C 142.272 53.4164 141.429 53.4094 140.007 54.6744L 99.7334 90.5224C 98.4764 91.6434 98.4294 92.8624 99.5264 94.0964L 108.94 104.666zM 177.331 181.291C 178.64 182.756 179.483 182.764 180.905 181.498L 221.179 145.651C 222.647 144.342 222.651 143.498 221.386 142.077L 211.972 131.506C 210.663 130.041 209.819 130.034 208.401 131.303L 168.124 167.147C 166.866 168.268 166.819 169.491 167.917 170.721L 177.331 181.291" style="stroke:none; fill-rule:evenodd; fill:#000000"/>
    <path d="M 29.6204 265.393L 2.62042 265.393" style="stroke:#000000; stroke-width:0.5; fill:none"/>
    <path d="M 38.6204 274.393L 38.6204 301.393" style="stroke:#000000; stroke-width:0.5; fill:none"/>
    <path d="M 29.6204 38.6204L 2.62042 38.6204" style="stroke:#000000; stroke-width:0.5; fill:none"/>
    <path d="M 38.6204 29.6204L 38.6204 2.62042" style="stroke:#000000; stroke-width:0.5; fill:none"/>
    <path d="M 274.394 38.6204L 301.394 38.6204" style="stroke:#000000; stroke-width:0.5; fill:none"/>
    <path d="M 265.394 29.6204L 265.394 2.62042" style="stroke:#000000; stroke-width:0.5; fill:none"/>
    <path d="M 274.394 265.393L 301.394 265.393" style="stroke:#000000; stroke-width:0.5; fill:none"/>
    <path d="M 265.394 274.393L 265.394 301.393" style="stroke:#000000; stroke-width:0.5; fill:none"/>
  </g>
</svg>

<svg viewBox="0 0 304.01 304.01"><g transform="matrix(1.35328 0 0 1.35328-53.21-52.19)" fill-rule="evenodd"><path d="m249.38 176.05l-.86-2.554-193.89 77.44.855 2.555 193.89-77.45"/><path d="m99.34 212.01c.191-3.832-2.758-7.093-6.59-7.289-3.828-.191-7.094 2.754-7.285 6.586-.191 3.832 2.758 7.098 6.59 7.289 3.828.196 7.094-2.758 7.285-6.59"/><path d="m164.06 155.47l-3.882 16.13 14.15 15.879 5.441 1.242 3.204 3.531-9.973-2.273-15.781-17.633 2.367-9.816-7.359 11.601-5.352 3.145-4.84 15.265-7.133 22.508c-.086.328-.215.633-.375.926-.008.012-.019.023-.027.039-.117.211-.254.406-.41.594-.02.019-.039.039-.055.058-.152.172-.316.332-.496.477-.02.016-.039.027-.059.043-.179.141-.375.266-.578.375-.023.012-.051.019-.074.031-.199.102-.406.188-.625.254-.043.012-.09.02-.137.031-.164.043-.324.094-.496.114l-22.726 2.902-10.926 7.246c-.113.078-.238.125-.359.188l-16.715 9.679c-1.895 1.098-4.325.449-5.422-1.445-1.102-1.899-.453-4.328 1.445-5.426l16.758-9.703c0-.004.004-.004.004-.004l5.344-3.535c1.613-1.488 2.628-3.613 2.628-5.981 0-1.75-.55-3.371-1.492-4.699l.016.004-4.586-6.551c-.02-.027-.039-.043-.059-.07l-11.379-16.258c-1.257-1.797-.82-4.269.977-5.527 1.797-1.258 4.27-.82 5.527.976l9.856 14.08c.016.023.039.042.055.066.003 0 .003.004.003.004 0 .004 0 .004 0 .004l7.715 11.02 14.938-1.906-5.723-8.496-2.422 1.422 1.465 1.613-4.058 3.625-40.17-44.988 4.058-3.625 1.504 1.617 25.977-34.41 12.539-6.04-10.285 1.277-15.743-17.672-1.132-10.168 3.148 3.582.621 5.547 14.184 15.852 16.804-2.078 10-4.821 3.555-3.144-7.91-8.895-16.777 14.946c-1.336 1.187-3.379 1.07-4.571-.266l-12.04-13.516c-1.187-1.336-1.07-3.379.266-4.57l43.24-38.519c1.336-1.188 3.383-1.071 4.57.265l12.04 13.516c1.192 1.336 1.075 3.379-.261 4.57l-18.18 16.195 52.06 58.27 18.17-16.187c1.332-1.188 3.379-1.071 4.57.265l12.03 13.516c1.191 1.336 1.074 3.379-.262 4.57l-43.24 38.516c-1.332 1.187-3.379 1.07-4.566-.262l-12.04-13.516c-1.192-1.336-1.075-3.382.261-4.57l16.778-14.945-7.953-8.887-3.493 3.117-6.121 9.711h-.004m-39.757 35.06l6.828 10.136 3.336-10.523 2.172-6.859-12.336 7.246m25.08-21.789l13.738-21.477-.41-.457-15.805 14.164-6.195-6.973-10.52 9.375c-1.777 1.586-4.504 1.434-6.093-.343l-12.477-13.981c-1.469-1.64-1.426-4.512.344-6.094l10.496-9.347-6.266-7.03 15.864-14.14-.305-.34-24.606 11.953-26.562 33.575 30.683 34.574 3.243-1.969-.942-1.422c-.011-.015-.023-.035-.039-.055l-.066-.101c-.031-.047-.047-.094-.074-.141-.106-.168-.2-.332-.278-.511-.035-.082-.058-.172-.09-.258-.054-.153-.105-.305-.136-.461-.028-.11-.036-.223-.051-.336-.02-.137-.035-.274-.039-.41-.004-.125.008-.25.015-.375.008-.125.016-.25.036-.375.023-.137.058-.266.097-.399.032-.113.055-.222.098-.328.055-.148.125-.293.199-.433.043-.082.078-.168.129-.246.098-.165.219-.317.344-.469.031-.039.054-.086.09-.125l.082-.09c.015-.02.031-.035.047-.055l15.82-17.543c1.469-1.629 3.976-1.758 5.605-.289 1.629 1.465 1.758 3.977.293 5.606l-12.347 13.687 15.683-9.211 2.668-8.429c.664-2.09 2.895-3.247 4.985-2.586 1.718.546 2.804 2.148 2.769 3.867m-29.422-41.953l6.242 7.02-12.699 11.332c-.547.703-.433 1.735.274 2.281l12.375 13.887c.613.649 1.644.703 2.293.086l12.457-11.125 6.183 6.914 13.84-12.34-27.11-30.406-13.856 12.352zm48.4 16.964l5.472-4.906 9.778 10.899 4.277-3.813-52.06-58.26-4.261 3.797 9.691 10.871-5.512 4.91 32.618 36.5m-59.45-39.08c1.309 1.465 2.153 1.473 3.575.204l40.27-35.844c1.469-1.309 1.473-2.152.207-3.574l-9.414-10.571c-1.309-1.465-2.152-1.472-3.574-.207l-40.27 35.848c-1.257 1.121-1.304 2.34-.207 3.574l9.414 10.57m68.39 76.62c1.309 1.465 2.152 1.473 3.574.207l40.27-35.847c1.468-1.309 1.472-2.153.207-3.574l-9.414-10.571c-1.309-1.465-2.153-1.472-3.571-.203l-40.28 35.844c-1.258 1.121-1.305 2.344-.207 3.574l9.414 10.57"/></g></svg>
